archdroid-icon-theme/Archdroid-ArchBlue/actions/scalable/focus-windows.svg

<?xml version="1.0" encoding="UTF-8" standalone="no"?>
<svg
   xmlns:dc="http://purl.org/dc/elements/1.1/"
   xmlns:cc="http://creativecommons.org/ns#"
   xmlns:rdf="http://www.w3.org/1999/02/22-rdf-syntax-ns#"
   xmlns:svg="http://www.w3.org/2000/svg"
   xmlns="http://www.w3.org/2000/svg"
   xmlns:sodipodi="http://sodipodi.sourceforge.net/DTD/sodipodi-0.dtd"
   xmlns:inkscape="http://www.inkscape.org/namespaces/inkscape"
   fill="#1793D1"
   width="48"
   height="48"
   viewBox="0 0 48 48"
   id="svg2"
   version="1.1"
   inkscape:version="0.91 r13725"
   sodipodi:docname="focus-windows.svg">
  <metadata
     id="metadata10">
    <rdf:RDF>
      <cc:Work
         rdf:about="">
        <dc:format>image/svg+xml</dc:format>
        <dc:type
           rdf:resource="http://purl.org/dc/dcmitype/StillImage" />
      </cc:Work>
    </rdf:RDF>
  </metadata>
  <defs
     id="defs8" />
  <sodipodi:namedview
     pagecolor="#ffffff"
     bordercolor="#666666"
     borderopacity="1"
     objecttolerance="10"
     gridtolerance="10"
     guidetolerance="10"
     inkscape:pageopacity="0"
     inkscape:pageshadow="2"
     inkscape:window-width="1366"
     inkscape:window-height="713"
     id="namedview6"
     showgrid="false"
     inkscape:snap-bbox="true"
     inkscape:bbox-nodes="true"
     inkscape:zoom="14.73222417072763"
     inkscape:cx="-27.16752745961949"
     inkscape:cy="5.073586748090673"
     inkscape:window-x="0"
     inkscape:window-y="30"
     inkscape:window-maximized="1"
     inkscape:current-layer="svg2" />
  <path
     id="path4135"
     style="fill:#1793D1"
     d="M 14,2 C 13.44691526262412,2 12.92052435406289,2.111703551316451 12.443359375,2.314453125 11.01388232895075,2.921844434911509 10.01953125,4.343084737375884 10.01953125,6 L 10,34 c 0,2.21 1.79,4.00000000000001 4,4 l 28,0 c 2.21,0 4,-1.79000000000002 4,-4 L 46,6 C 46,3.79 44.21000000000002,2 42,2 L 40,2 36,2 20,2 16,2 14,2 Z m 0,10 28,0 0,22 -28,0 0,-22 z m 16.00008793124769,33.99955686164851 -24.00000000000001,0 c -2.210000000000013,0 -4.000000000000002,-1.79 -4.000000000000002,-4.00000000000001 l 0,-28 4.000000000000002,0 0,28.00000000000002 24.000000000000028,0 0,4 z" />
</svg>

<svg xmlns="http://www.w3.org/2000/svg" fill="#1793D1" viewBox="0 0 48 48"><path d="m14 2c-.553 0-1.079.112-1.557.314-1.429.607-2.424 2.029-2.424 3.686l-.02 28c0 2.21 1.79 4 4 4h28c2.21 0 4-1.79 4-4v-28c0-2.21-1.79-4-4-4h-2-4-16-4-2m0 10h28v22h-28v-22zm16 34h-24c-2.21 0-4-1.79-4-4v-28h4v28h24v4" fill="#1793D1"/></svg>
